X:1
T:Drunken Tinker, The
L:1/8
M:2/2
I:linebreak $
K:C
V:1 treble 
V:1
 DG G2 DF F2 | DG G2 dGcF | DGGF D3 E | F2 AF CFAF :| G2 dG eGdG | G2 dG cAFA |$ G2 dG eGdB | %7
 c2 AF CFAF | G2 dG eGdG | eGdG cAFA | dcde fefd | c2 AF CFAF || %12
